X:508
T:Marcha Procesional de Balmonte (XA 09)
R:Marcha
C:Tradicional
S:Msica Tradicional Asturiana, (C) Tello & Tito. Asturies, 2001.
S:http://pagina.de/MusTradAst <telloytito@asturies.org>
A:Asturies
O:Balmonte de Miranda
Z:Mtodu de Xuacu Amieva 09
M:6/8
L:1/8
Q:3/8=70
K:C
|: E5 C|B,2 C D2 E|F3 FGF|
|E5 C|B,2 C D2 E|[1 C3 G3 :|[2 C3 GAB|
|: c3 G3|G3 GAG|G3 F3|E3 GAG|G3 F3|
|E3 GAG|F3 E3|D3 ABA|G3 F3|E3 GAG|
|F3 E3|D3 (4A-ABA|(4G-GEG (4FEDE|C6 :|
